src/assets/icons/letters,simple,serif-u.svg

<svg width="48" height="48" viewBox="0 0 48 48" fill="none" xmlns="http://www.w3.org/2000/svg">
<rect opacity="0.2" x="5" y="5" width="38" height="38" rx="4" fill="black"/>
<path d="M33.5118 26.7C33.5118 28.4 33.3218 29.86 32.9418 31.08C32.5818 32.28 32.0118 33.27 31.2318 34.05C30.4518 34.83 29.4418 35.4 28.2018 35.76C26.9818 36.12 25.5118 36.3 23.7918 36.3C20.5718 36.3 18.2118 35.63 16.7118 34.29C15.2318 32.93 14.4918 30.77 14.4918 27.81V19.59C14.4918 18.81 14.4818 18.16 14.4618 17.64C14.4418 17.1 14.4118 16.65 14.3718 16.29C14.3318 15.93 14.2718 15.64 14.1918 15.42C14.1318 15.18 14.0518 14.98 13.9518 14.82C13.7718 14.54 13.5118 14.35 13.1718 14.25C12.8318 14.15 12.3118 14.1 11.6118 14.1V12.9H22.3818V14.1C21.5418 14.1 20.9218 14.15 20.5218 14.25C20.1218 14.33 19.8118 14.5 19.5918 14.76C19.4518 14.92 19.3318 15.12 19.2318 15.36C19.1518 15.58 19.0818 15.88 19.0218 16.26C18.9818 16.62 18.9518 17.07 18.9318 17.61C18.9118 18.15 18.9018 18.81 18.9018 19.59V27.45C18.9018 29.73 19.3818 31.42 20.3418 32.52C21.3218 33.6 22.8218 34.14 24.8418 34.14C28.9618 34.14 31.0218 31.85 31.0218 27.27V20.34C31.0218 19.5 31.0018 18.78 30.9618 18.18C30.9418 17.58 30.8918 17.07 30.8118 16.65C30.7518 16.23 30.6618 15.88 30.5418 15.6C30.4418 15.32 30.3118 15.09 30.1518 14.91C29.8718 14.63 29.5118 14.43 29.0718 14.31C28.6318 14.17 28.0218 14.1 27.2418 14.1V12.9H36.9618V14.1C36.2218 14.1 35.6518 14.16 35.2518 14.28C34.8518 14.38 34.5418 14.57 34.3218 14.85C34.1618 15.03 34.0318 15.27 33.9318 15.57C33.8318 15.85 33.7518 16.21 33.6918 16.65C33.6318 17.07 33.5818 17.58 33.5418 18.18C33.5218 18.78 33.5118 19.5 33.5118 20.34V26.7Z" fill="black"/>
</svg>

<svg xmlns="http://www.w3.org/2000/svg" width="48" height="48" fill="none" viewBox="0 0 48 48">
  <rect width="38" height="38" x="5" y="5" fill="#000" opacity=".2" rx="4"/>
  <path fill="#000" d="M33.512 26.7c0 1.7-.19 3.16-.57 4.38-.36 1.2-.93 2.19-1.71 2.97-.78.78-1.79 1.35-3.03 1.71-1.22.36-2.69.54-4.41.54-3.22 0-5.58-.67-7.08-2.01-1.48-1.36-2.22-3.52-2.22-6.48v-8.22c0-.78-.01-1.43-.03-1.95-.02-.54-.05-.99-.09-1.35-.04-.36-.1-.65-.18-.87-.06-.24-.14-.44-.24-.6-.18-.28-.44-.47-.78-.57-.34-.1-.86-.15-1.56-.15v-1.2h10.77v1.2c-.84 0-1.46.05-1.86.15-.4.08-.71.25-.93.51-.14.16-.26.36-.36.6-.08.22-.15.52-.21.9-.04.36-.07.81-.09 1.35-.02.54-.03 1.2-.03 1.98v7.86c0 2.28.48 3.97 1.44 5.07.98 1.08 2.48 1.62 4.5 1.62 4.12 0 6.18-2.29 6.18-6.87v-6.93c0-.84-.02-1.56-.06-2.16-.02-.6-.07-1.11-.15-1.53-.06-.42-.15-.77-.27-1.05-.1-.28-.23-.51-.39-.69-.28-.28-.64-.48-1.08-.6-.44-.14-1.05-.21-1.83-.21v-1.2h9.72v1.2c-.74 0-1.31.06-1.71.18-.4.1-.71.29-.93.57-.16.18-.29.42-.39.72-.1.28-.18.64-.24 1.08-.06.42-.11.93-.15 1.53-.02.6-.03 1.32-.03 2.16v6.36z"/>
</svg>
